Newaita/actions/scalable/zoom-fit-width.svg

<?xml version="1.0" encoding="UTF-8"?>
<svg xmlns="http://www.w3.org/2000/svg" xmlns:xlink="http://www.w3.org/1999/xlink" width="512pt" height="512pt" viewBox="0 0 512 512" version="1.1">
<g id="surface1">
<path style=" stroke:none;fill-rule:nonzero;fill:rgb(25.882354%,25.882354%,25.882354%);fill-opacity:1;" d="M 169.347656 152.179688 C 157.621094 152.179688 148.179688 161.621094 148.179688 173.351562 L 148.179688 342.699219 C 148.179688 354.425781 157.621094 363.867188 169.347656 363.867188 L 338.699219 363.867188 C 350.425781 363.867188 359.867188 354.425781 359.867188 342.699219 L 359.867188 173.351562 C 359.867188 161.621094 350.425781 152.179688 338.699219 152.179688 Z M 195.808594 183.933594 L 312.238281 183.933594 C 321.035156 183.933594 328.113281 191.015625 328.113281 199.808594 L 328.113281 316.238281 C 328.113281 325.035156 321.035156 332.113281 312.238281 332.113281 L 195.808594 332.113281 C 187.015625 332.113281 179.933594 325.035156 179.933594 316.238281 L 179.933594 199.808594 C 179.933594 191.015625 187.015625 183.933594 195.808594 183.933594 Z M 195.808594 183.933594 "/>
<path style=" stroke:none;fill-rule:evenodd;fill:rgb(25.882354%,25.882354%,25.882354%);fill-opacity:1;" d="M 21.167969 258.023438 C 21.195312 264.425781 24.117188 270.46875 29.113281 274.46875 L 82.035156 316.804688 C 88.386719 321.886719 97.09375 322.875 104.425781 319.351562 C 111.757812 315.828125 116.421875 308.414062 116.425781 300.277344 L 116.425781 215.601562 C 116.421875 207.464844 111.757812 200.050781 104.425781 196.523438 C 97.09375 193 88.386719 193.992188 82.035156 199.070312 L 29.113281 241.410156 C 24.070312 245.445312 21.144531 251.5625 21.167969 258.023438 Z M 21.167969 258.023438 "/>
<path style=" stroke:none;fill-rule:evenodd;fill:rgb(25.882354%,25.882354%,25.882354%);fill-opacity:1;" d="M 486.878906 258.023438 C 486.851562 264.425781 483.933594 270.46875 478.9375 274.46875 L 426.015625 316.804688 C 419.660156 321.886719 410.957031 322.875 403.621094 319.351562 C 396.289062 315.828125 391.625 308.414062 391.621094 300.277344 L 391.621094 215.601562 C 391.625 207.464844 396.289062 200.050781 403.621094 196.523438 C 410.957031 193 419.660156 193.992188 426.015625 199.070312 L 478.9375 241.410156 C 483.980469 245.445312 486.90625 251.5625 486.878906 258.023438 Z M 486.878906 258.023438 "/>
<path style=" stroke:none;fill-rule:nonzero;fill:rgb(14.901961%,77.64706%,85.490197%);fill-opacity:0.996078;" d="M 63.507812 25.167969 C 40.050781 25.167969 21.167969 44.050781 21.167969 67.507812 L 21.167969 131.011719 C 21.167969 136.875 28.109375 141.597656 36.734375 141.597656 L 37.355469 141.597656 C 45.980469 141.597656 52.921875 136.875 52.921875 131.011719 L 52.921875 78.089844 C 52.921875 66.363281 62.363281 56.921875 74.089844 56.921875 L 127.011719 56.921875 C 132.875 56.921875 137.597656 49.839844 137.597656 41.046875 C 137.597656 32.25 132.875 25.167969 127.011719 25.167969 Z M 381.035156 25.167969 C 375.171875 25.167969 370.453125 32.25 370.453125 41.046875 C 370.453125 49.839844 375.171875 56.921875 381.035156 56.921875 L 433.957031 56.921875 C 445.6875 56.921875 455.125 66.363281 455.125 78.089844 L 455.125 131.011719 C 455.125 136.875 462.207031 141.597656 471.003906 141.597656 C 479.800781 141.597656 486.878906 136.875 486.878906 131.011719 L 486.878906 67.507812 C 486.878906 44.050781 467.996094 25.167969 444.542969 25.167969 Z M 36.734375 374.453125 C 28.109375 374.453125 21.167969 379.171875 21.167969 385.035156 L 21.167969 448.542969 C 21.167969 471.996094 40.050781 490.878906 63.507812 490.878906 L 127.011719 490.878906 C 132.875 490.878906 137.597656 483.800781 137.597656 475.003906 C 137.597656 466.207031 132.875 459.128906 127.011719 459.128906 L 74.089844 459.128906 C 62.363281 459.128906 52.921875 449.6875 52.921875 437.957031 L 52.921875 385.035156 C 52.921875 379.171875 45.980469 374.453125 37.355469 374.453125 Z M 471.003906 374.453125 C 462.207031 374.453125 455.125 379.171875 455.125 385.035156 L 455.125 437.957031 C 455.125 449.6875 445.6875 459.128906 433.957031 459.128906 L 381.035156 459.128906 C 375.171875 459.128906 370.453125 466.207031 370.453125 475.003906 C 370.453125 483.800781 375.171875 490.878906 381.035156 490.878906 L 444.542969 490.878906 C 467.996094 490.878906 486.878906 471.996094 486.878906 448.542969 L 486.878906 385.035156 C 486.878906 379.171875 479.800781 374.453125 471.003906 374.453125 Z M 471.003906 374.453125 "/>
</g>
</svg>

<svg xmlns="http://www.w3.org/2000/svg" width="512pt" height="512pt" viewBox="0 0 512 512"><path d="M169.348 152.18a21.123 21.123 0 0 0-21.168 21.172v169.347a21.122 21.122 0 0 0 21.168 21.168h169.351a21.122 21.122 0 0 0 21.168-21.168V173.352A21.123 21.123 0 0 0 338.7 152.18zm26.46 31.754h116.43a15.84 15.84 0 0 1 15.875 15.875v116.43a15.838 15.838 0 0 1-15.875 15.874h-116.43a15.84 15.84 0 0 1-15.874-15.875v-116.43a15.843 15.843 0 0 1 15.875-15.874zm0 0" fill="#424242"/><path d="M21.168 258.023a21.182 21.182 0 0 0 7.945 16.446l52.922 42.336a21.168 21.168 0 0 0 34.39-16.528v-84.675a21.182 21.182 0 0 0-12-19.079 21.176 21.176 0 0 0-22.39 2.547l-52.922 42.34a21.178 21.178 0 0 0-7.945 16.613zm0 0M486.879 258.023a21.178 21.178 0 0 1-7.942 16.446l-52.921 42.336a21.172 21.172 0 1 1-34.395-16.527v-84.676a21.182 21.182 0 0 1 12-19.079 21.183 21.183 0 0 1 22.395 2.547l52.921 42.34a21.162 21.162 0 0 1 7.942 16.613zm0 0" fill-rule="evenodd" fill="#424242"/><path d="M63.508 25.168c-23.457 0-42.34 18.883-42.34 42.34v63.504c0 5.863 6.941 10.586 15.566 10.586h.621c8.625 0 15.567-4.723 15.567-10.586V78.09A21.122 21.122 0 0 1 74.09 56.922h52.922c5.863 0 10.586-7.082 10.586-15.875 0-8.797-4.723-15.879-10.586-15.879zm317.527 0c-5.863 0-10.582 7.082-10.582 15.879 0 8.793 4.719 15.875 10.582 15.875h52.922a21.12 21.12 0 0 1 21.168 21.168v52.922c0 5.863 7.082 10.586 15.879 10.586s15.875-4.723 15.875-10.586V67.508c0-23.457-18.883-42.34-42.336-42.34zm-344.3 349.285c-8.626 0-15.567 4.719-15.567 10.582v63.508c0 23.453 18.883 42.336 42.34 42.336h63.504c5.863 0 10.586-7.078 10.586-15.875s-4.723-15.875-10.586-15.875H74.09a21.123 21.123 0 0 1-21.168-21.172v-52.922c0-5.863-6.942-10.582-15.567-10.582zm434.269 0c-8.797 0-15.879 4.719-15.879 10.582v52.922a21.12 21.12 0 0 1-21.168 21.172h-52.922c-5.863 0-10.582 7.078-10.582 15.875s4.719 15.875 10.582 15.875h63.508c23.453 0 42.336-18.883 42.336-42.336v-63.508c0-5.863-7.078-10.582-15.875-10.582zm0 0" fill="#26c6da" fill-opacity=".996"/></svg>
